X: 1
T: The Scottish Horse
C: The Marchioness of Tullibardine
R: jig
B: RSCDS 35-__
Z: 1997 by John Chambers <jc:trillian.mit.edu>
M: 6/8
L: 1/8
K: A
|: A/B/ \
| "A"c3 ecA | "D"def a2f | "A"edc "F#m"cAe | "Bm"B3 "E7"B2A/B/ \
| "A"c3 ecA | "D"def afd | "A"ecA "E7"B2e | "A"A3- A2 :|
|| e \
| "A"a2e A2e | "D"d2f a2f | "A"edc "F#m"cAe | "Bm"B3 "E7"B2A/B/ \
| "A"c3 ecA | "D"def afd | "A"ecA "E7"B2e | "A"A3- A2 ||
|| e \
| "A"a2e A2e | "D"d2f a2f | "A"edc "F#m"cAe | "Bm"B3 "E7"B2e/d/ \
| "A"caA eaA | "D"faA dfA | "A"ceA "E7"B2e | "A"A3- A2 |]
%%center Book35/ScottishHorse-JC.abc

%%sep 1 1 500
%%sep 1 1 500

